X:790
T:Xiraldilla (CT 150)
R:Xiraldilla
C:Tradicional
S:Msica Tradicional Asturiana, (C) Tello & Tito. Asturies, 2001.
S:http://pagina.de/MusTradAst <telloytito@asturies.org>
N:Xiraldilla, dictada por Ricardo Llabona Llabona, de veintisis aos, de Torazo, ayuntamiento de Cabranes.
A:Asturies
O:Torazo (Cabranes)
Z:Cancioneru de Torner 150
M:3/8
L:1/8
Q:3/8=88
K:G
|: GGG|GAB|(c>BA)|ccc|cBA|(B>AG)|
AAA|AGF|(B>AG)|GGG|GFA|G2 z :|
AAA|AGF|(B>AG)|GGG|GFA|G2 z||
W:Por la escalera yo vi
W:tu lindo talle bajar;
W:no te lo pude medir,
W:mira qu pena me da.
W:
W:Mira qu pena me da
W:ai! qu pena y qu dolor;
W:vivir no  puedo sin ti,
W:prenda de mi corazn,
W:vivir no puedo sin ti,
W:dame la mano por Dios.
W:
